X: 9924
T: Detroit
R: jig
M: 6/8
K: Dmajor
ab|afb afb|afd A2G|FAd f2g|fe^d eac'|
bac' bac'|bae c2B|AcB Afe|d3 d:|
|:z2|A,DF A2d|f3 f3|A,DF Adf|e3 e3|
B,EG B2e|g3 gfg|e2d cBA|1 d3 d:|2 d3||
|:af'2|f'e'd' a2f|gab a2A|FAd fad'|c'3 b3|
bab BBB|a^ga A2g|fed Ace|d3:|
dcd|:ecd eag|fde fba|^gfe dcB|cAf e3|
fff d'd'd'|eee c'c'c'|bc'b bf^g|a3 a3:|

